X: 19175
T: Is The Big Man Within?
R: slip jig
M: 9/8
K: Dmajor
|:F|AGF G2E E2F|GFE F2D D2F|AGF G2E E2c|dcB AFDD2:|
M:6/8
|:E|F2A ABc|ded cBA|Bcd AGF|BGE EFG|
F2A ABc|ded cBA|Bcd AGF|AFD D2:|

